**kern	**silbe	**harmony	**phrase	**leadinstrument	**rhyme	**timestamp	**harte
*ICvox	*	*M4/4	*	*	*	*	*M4/4
*VRlead	*	*	*	*	*	*	*
*Hstimme	*	*	*	*	*	*	*
*C:	*	*C:	*	*	*	*	*C:
*M4/4	*	*	*	*	*	*	*
*clefGv2	*	*	*	*	*	*	*
r;	.	1r;	.	r	.	0	N.C.
=1	=1	=1	=1	=1	=1	=1	=1
*>Letter>A	*>Letter>A	*>Letter>A	*>Letter>A	*>Letter>A	*>Letter>A	*>Letter>A	*>Letter>A
*>Label>Intro	*>Label>Intro	*>Label>Intro	*>Label>Intro	*>Label>Intro	*>Label>Intro	*>Label>Intro	*>Label>Intro
1r	.	1CM	newline	piano	.	0.395	C:maj
=2	=2	=2	=2	=2	=2	=2	=2
1r	.	1FM	.	piano	.	3.844	F:maj
=3	=3	=3	=3	=3	=3	=3	=3
1r	.	1CM	.	piano	.	7.292	C:maj
=4	=4	=4	=4	=4	=4	=4	=4
2.r	.	1FM	.	piano	.	10.741	F:maj
8.r	.	.	.	.	.	.	.
16F	of	.	.	.	.	.	.
=5	=5	=5	=5	=5	=5	=5	=5
*>Letter>B	*>Letter>B	*>Letter>B	*>Letter>B	*>Letter>B	*>Letter>B	*>Letter>B	*>Letter>B
*>Label>Verse	*>Label>Verse	*>Label>Verse	*>Label>Verse	*>Label>Verse	*>Label>Verse	*>Label>Verse	*>Label>Verse
8.E	course	1CM	newline	voice	.	14.19	C:maj
16G	we	.	.	.	.	.	.
16c	have	.	.	.	.	.	.
16B	our	.	.	.	.	.	.
16d	differ-	.	.	.	.	.	.
16c	-enc-	.	.	.	.	.	.
4.c	-es	.	.	.	.	.	.
16r	.	.	.	.	.	.	.
16G	you	.	.	.	.	.	.
=6	=6	=6	=6	=6	=6	=6	=6
16G	should-	1FM	.	voice	.	17.697	F:maj
16F	-n't	.	.	.	.	.	.
4F	be	.	.	.	.	.	.
16E	sur-	.	.	.	.	.	.
[16F	-prised	.	.	.	A	.	.
8F]	_	.	.	.	.	.	.
8r	.	.	.	.	.	.	.
8r	.	.	.	.	.	.	.
16F	it's	.	.	.	.	.	.
16E	as	.	.	.	.	.	.
=7	=7	=7	=7	=7	=7	=7	=7
8D	nat-	1GM	.	voice	.	21.203	G:maj
16F	-u-	.	.	.	.	.	.
8.G	_	.	.	.	.	.	.
16G	as	.	.	.	.	.	.
8e	chang-	.	.	.	.	.	.
4d	-es	.	.	.	.	.	.
16d	in	.	.	.	.	.	.
16e	the	.	.	.	.	.	.
[16d	sea	.	.	.	.	.	.
=8	=8	=8	=8	=8	=8	=8	=8
8d]	_	1CM	.	voice	.	24.71	C:maj
8c	sons	.	.	.	.	.	.
16c	and	.	.	.	.	.	.
16B	the	.	.	.	.	.	.
16c	skies	.	.	.	A	.	.
16d	_	.	.	.	.	.	.
4.c	_	.	.	.	.	.	.
16r	.	.	.	.	.	.	.
16G	some-	.	.	.	.	.	.
=9	=9	=9	=9	=9	=9	=9	=9
4E	-times	1CM	newline	voice	.	28.217	C:maj
16G	we	.	.	.	.	.	.
16c	grow	.	.	.	.	.	.
16B	to-	.	.	.	.	.	.
16d	-ge-	.	.	.	.	.	.
4c	-ther	.	.	.	.	.	.
8.r	.	.	.	.	.	.	.
16G	some-	.	.	.	.	.	.
=10	=10	=10	=10	=10	=10	=10	=10
4G	-times	1FM	.	voice	.	31.735	F:maj
16F	we	.	.	.	.	.	.
16F	drift	.	.	.	.	.	.
16E	a-	.	.	.	.	.	.
8.F	-part	.	.	.	B	.	.
8r	.	.	.	.	.	.	.
8.r	.	.	.	.	.	.	.
16E	A	.	.	.	.	.	.
=11	=11	=11	=11	=11	=11	=11	=11
8D	wis-	1GMm	.	voice	.	35.253	G:7
16F	-er	.	.	.	.	.	.
8.G	man	.	.	.	.	.	.
16G	than	.	.	.	.	.	.
8e	I	.	.	.	.	.	.
8d	night	.	.	.	.	.	.
4d	know	.	.	.	.	.	.
16e	the	.	.	.	.	.	.
=12	=12	=12	=12	=12	=12	=12	=12
8d	sea-	1CM	.	voice	.	38.771	C:maj
8c	-sons	.	.	.	.	.	.
16c	of	.	.	.	.	.	.
16B	the	.	.	.	.	.	.
4.c	heart	.	.	.	B	.	.
8r	.	.	.	.	.	.	.
16r	.	.	.	.	.	.	.
32E	and	.	.	.	.	.	.
32D	I'm	.	.	.	.	.	.
=13	=13	=13	=13	=13	=13	=13	=13
16C	walk-	1CM	newline	voice	.	42.289	C:maj
8.E	-ing	.	.	.	.	.	.
8G	here	.	.	.	.	.	.
16c	be-	.	.	.	.	.	.
8d	-side	.	.	.	.	.	.
[4e	you	.	.	.	C	.	.
16e]	_	.	.	.	.	.	.
16r	.	.	.	.	.	.	.
32c	in	.	.	.	.	.	.
32c	the	.	.	.	.	.	.
=14	=14	=14	=14	=14	=14	=14	=14
16c	ear-	1FM	.	voice	.	45.831	F:maj
8.A	-ly	.	.	.	.	.	.
16A	eve-	.	.	.	.	.	.
8A	-ning	.	.	.	.	.	.
[16A	chill	.	.	.	D	.	.
4A]	_	.	.	.	.	.	.
8.r	.	.	.	.	.	.	.
16F	a	.	.	.	.	.	.
=15	=15	=15	=15	=15	=15	=15	=15
8D	thing	1GMm	.	voice	.	49.372	G:7
16F	we've	.	.	.	.	.	.
8G	al-	.	.	.	.	.	.
8G	-ways	.	.	.	.	.	.
8e	loved	.	.	.	.	.	.
16d	to	.	.	.	.	.	.
8.d	do	.	.	.	C	.	.
16r	.	.	.	.	.	.	.
16d	I	.	.	.	.	.	.
16e	_	.	.	.	.	.	.
=16	=16	=16	=16	=16	=16	=16	=16
8.d	know	1CM	.	voice	.	52.914	C:maj
16c	we	.	.	.	.	.	.
16c	al-	.	.	.	.	.	.
8B	-ways	.	.	.	.	.	.
[16c	will	.	.	.	D	.	.
4c]	_	.	.	.	.	.	.
8.r	.	.	.	.	.	.	.
16G	WE	.	.	.	.	.	.
=17	=17	=17	=17	=17	=17	=17	=17
8E	have	1CM	newline	voice	.	56.455	C:maj
8G	so	.	.	.	.	.	.
16c	much	.	.	.	.	.	.
16B	in	.	.	.	.	.	.
16d	com-	.	.	.	.	.	.
8c	-mon	.	.	.	.	.	.
8.r	.	.	.	.	.	.	.
8.r	.	.	.	.	.	.	.
16G	so	.	.	.	.	.	.
=18	=18	=18	=18	=18	=18	=18	=18
16G	man-	1FM	.	voice	.	60.007	F:maj
16F	-y	.	.	.	.	.	.
4F	things	.	.	.	.	.	.
16E	we	.	.	.	.	.	.
[16F	share	.	.	.	E	.	.
8.F]	_	.	.	.	.	.	.
16r	.	.	.	.	.	.	.
8r	.	.	.	.	.	.	.
16F	that	.	.	.	.	.	.
16E	I	.	.	.	.	.	.
=19	=19	=19	=19	=19	=19	=19	=19
8D	can't	1GMm	.	voice	.	63.559	G:7
16F	be-	.	.	.	.	.	.
8.G	-lieve	.	.	.	.	.	.
16G	my	.	.	.	.	.	.
16e	heart	.	.	.	.	.	.
4r	.	.	.	.	.	.	.
16d	when	.	.	.	.	.	.
16d	it	.	.	.	.	.	.
16e	im-	.	.	.	.	.	.
[16d	-plies	.	.	.	.	.	.
=20	=20	=20	=20	=20	=20	=20	=20
*M4/4	*	*	*	*	*	*	*
8.d]	_	1CM	.	voice	.	67.111	C:maj
16c	that	.	.	.	.	.	.
16c	you're	.	.	.	.	.	.
8B	not	.	.	.	.	.	.
[16c	there	.	.	.	E	.	.
2c_	_	.	.	.	.	.	.
=21	=21	=21	=21	=21	=21	=21	=21
*M2/4	*	*M2/4	*M2/4	*M2/4	*	*M2/4	*M2/4
4.c]	_	2CMm	.	voice	.	70.663	C:7
8r	.	.	.	.	.	.	.
=22	=22	=22	=22	=22	=22	=22	=22
*>Letter>C	*>Letter>C	*>Letter>C	*>Letter>C	*>Letter>C	*>Letter>C	*>Letter>C	*>Letter>C
*>Label>Chorus	*>Label>Chorus	*>Label>Chorus	*>Label>Chorus	*>Label>Chorus	*>Label>Chorus	*>Label>Chorus	*>Label>Chorus
*	*	*M4/4	*M4/4	*M4/4	*	*M4/4	*M4/4
16A	love	2FM	newline	voice	.	72.439	F:maj
16B	is	.	.	.	.	.	.
4c	why	.	.	.	.	.	.
8c	I	.	.	.	.	.	.
8B	came	2GMm	.	voice	.	74.208	G:7
4B	here	.	.	.	.	.	.
16B	in	.	.	.	.	.	.
16A	the	.	.	.	.	.	.
=23	=23	=23	=23	=23	=23	=23	=23
8G	first	1CM	.	voice	.	75.977	C:maj
4.D	place	.	.	.	.	.	.
2r	.	.	.	.	.	.	.
=24	=24	=24	=24	=24	=24	=24	=24
16A	Love	2FM	.	voice	.	79.514	F:maj
16B	is	.	.	.	.	.	.
[8c	now	.	.	.	.	.	.
8.c]	_	.	.	.	.	.	.
16c	the	.	.	.	.	.	.
8B	rea-	2GMm	.	voice	.	81.283	G:7
16B	-son	.	.	.	.	.	.
8.B	I	.	.	.	.	.	.
8A	must	.	.	.	.	.	.
=25	=25	=25	=25	=25	=25	=25	=25
2G	go	1CM	.	voice	F	83.052	C:maj
2r	.	.	.	.	.	.	.
=26	=26	=26	=26	=26	=26	=26	=26
16A	Love	2FM	newline	voice	.	86.59	F:maj
16B	is	.	.	.	.	.	.
4c	all	.	.	.	.	.	.
8c	I	.	.	.	.	.	.
16B	ev-	2GMm	.	voice	.	88.337	G:7
16c	-er	.	.	.	.	.	.
4d	hoped	.	.	.	.	.	.
16c	to	.	.	.	.	.	.
[16c	find	.	.	.	.	.	.
=27	=27	=27	=27	=27	=27	=27	=27
16c]	_	1CM	.	voice	.	90.084	C:maj
[4..e	here	.	.	.	.	.	.
2e]	_	.	.	.	.	.	.
=28	=28	=28	=28	=28	=28	=28	=28
8.f	Love	2FM	.	voice	.	93.577	F:maj
16e	is	.	.	.	.	.	.
8c	still	.	.	.	.	.	.
16r	.	.	.	.	.	.	.
16A	the	.	.	.	.	.	.
8G	on-	2GMm	.	voice	.	95.323	G:7
16G	-ly	.	.	.	.	.	.
8c	dream	.	.	.	.	.	.
8.B	I	.	.	.	.	.	.
=29	=29	=29	=29	=29	=29	=29	=29
*>Letter>A	*>Letter>A	*>Letter>A	*>Letter>A	*>Letter>A	*>Letter>A	*>Letter>A	*>Letter>A
*>Label>Interlude	*>Label>Interlude	*>Label>Interlude	*>Label>Interlude	*>Label>Interlude	*>Label>Interlude	*>Label>Interlude	*>Label>Interlude
[1c	know	1CM	->newline	saxophone	F	97.07	C:maj
=30	=30	=30	=30	=30	=30	=30	=30
2.c]	_	1FM	.	saxophone	.	100.216	F:maj
4r	.	.	.	.	.	.	.
=31	=31	=31	=31	=31	=31	=31	=31
1r	.	1CM	.	saxophone	.	103.361	C:maj
=32	=32	=32	=32	=32	=32	=32	=32
2r	.	1GM;	.	saxophone	.	106.507	G:maj
4.r	.	.	.	.	.	.	.
32D	So	.	.	.	.	.	.
32D	I	.	.	.	.	.	.
[16E	don't	.	.	.	.	.	.
=33	=33	=33	=33	=33	=33	=33	=33
*>Letter>B	*>Letter>B	*>Letter>B	*>Letter>B	*>Letter>B	*>Letter>B	*>Letter>B	*>Letter>B
*>Label>Verse	*>Label>Verse	*>Label>Verse	*>Label>Verse	*>Label>Verse	*>Label>Verse	*>Label>Verse	*>Label>Verse
16E]	_	1CM	newline	voice	.	112.798	C:maj
8.G	know	.	.	.	.	.	.
8c	how	.	.	.	.	.	.
16B	to	.	.	.	.	.	.
[16d	tell	.	.	.	.	.	.
16d]	_	.	.	.	.	.	.
8c	you	.	.	.	.	.	.
4r	.	.	.	.	.	.	.
16G	It's	.	.	.	.	.	.
=34	=34	=34	=34	=34	=34	=34	=34
16G	dif-	1FM	.	voice	.	116.448	F:maj
16F	-fi-	.	.	.	.	.	.
4F	-cult	.	.	.	.	.	.
16E	to	.	.	.	.	.	.
[16F	say	.	.	.	G	.	.
4F]	_	.	.	.	.	.	.
8r	.	.	.	.	.	.	.
16r	.	.	.	.	.	.	.
16E	I	.	.	.	.	.	.
=35	=35	=35	=35	=35	=35	=35	=35
16D	ne-	1GMm	.	voice	.	120.098	G:7
8.F	-ver	.	.	.	.	.	.
16G	in	.	.	.	.	.	.
8G	my	.	.	.	.	.	.
8e	wild-	.	.	.	.	.	.
16d	-est	.	.	.	.	.	.
[4d	dreams	.	.	.	.	.	.
16d]	_	.	.	.	.	.	.
16e	i-	.	.	.	.	.	.
=36	=36	=36	=36	=36	=36	=36	=36
16d	-mag-	1CM	.	voice	.	123.748	C:maj
8.c	-ined	.	.	.	.	.	.
16c	it	.	.	.	.	.	.
16B	this	.	.	.	.	.	.
[8c	way	.	.	.	G	.	.
8c]	_	.	.	.	.	.	.
4r	.	.	.	.	.	.	.
16G	some-	.	.	.	.	.	.
[16E	-times	.	.	.	.	.	.
=37	=37	=37	=37	=37	=37	=37	=37
8E]	_	1CM	newline	voice	.	127.398	C:maj
8r	.	.	.	.	.	.	.
32r	.	.	.	.	.	.	.
32G	I	.	.	.	.	.	.
16c	just	.	.	.	.	.	.
16B	don't	.	.	.	.	.	.
8d	know	.	.	.	.	.	.
8.c	you	.	.	.	.	.	.
8r	.	.	.	.	.	.	.
16G	there's	.	.	.	.	.	.
16G	a	.	.	.	.	.	.
=38	=38	=38	=38	=38	=38	=38	=38
8G	strang-	1FM	.	voice	.	131.011	F:maj
8F	-er	.	.	.	.	.	.
16F	in	.	.	.	.	.	.
8F	our	.	.	.	.	.	.
[16F	home	.	.	.	H	.	.
4F]	_	.	.	.	.	.	.
8r	.	.	.	.	.	.	.
16F	when	.	.	.	.	.	.
16E	I'm	.	.	.	.	.	.
=39	=39	=39	=39	=39	=39	=39	=39
16D	ly-	1GMm	.	voice	.	134.625	G:7
8.F	-ing	.	.	.	.	.	.
8G	right	.	.	.	.	.	.
16G	be-	.	.	.	.	.	.
8e	-side	.	.	.	.	.	.
[8.d	you	.	.	.	.	.	.
8d]	_	.	.	.	.	.	.
8e	is	.	.	.	.	.	.
=40	=40	=40	=40	=40	=40	=40	=40
16d	when	1CM	.	voice	.	138.238	C:maj
8.c	I'm	.	.	.	.	.	.
8c	most	.	.	.	.	.	.
16B	a-	.	.	.	.	.	.
[16c	-lone	.	.	.	H	.	.
4c]	_	.	.	.	.	.	.
8r	.	.	.	.	.	.	.
16E	and	.	.	.	.	.	.
16D	I	.	.	.	.	.	.
=41	=41	=41	=41	=41	=41	=41	=41
8.C	think	1CM	newline	voice	.	141.852	C:maj
16E	my	.	.	.	.	.	.
16G	heart	.	.	.	.	.	.
8c	is	.	.	.	.	.	.
8d	bro-	.	.	.	.	.	.
[4e	-ken	.	.	.	.	.	.
16e]	_	.	.	.	.	.	.
16c	there's	.	.	.	.	.	.
16c	a	.	.	.	.	.	.
=42	=42	=42	=42	=42	=42	=42	=42
16c	emp-	1FM	.	voice	.	145.447	F:maj
16A	-ti-	.	.	.	.	.	.
4A	-ness	.	.	.	.	.	.
16A	in-	.	.	.	.	.	.
[16A	-side	.	.	.	I	.	.
8A]	_	.	.	.	.	.	.
8r	.	.	.	.	.	.	.
8.r	.	.	.	.	.	.	.
16F	So	.	.	.	.	.	.
=43	=43	=43	=43	=43	=43	=43	=43
16D	ma-	1GMm	.	voice	.	149.042	G:7
16F	-ny	.	.	.	.	.	.
[8G	things	.	.	.	.	.	.
16G]	_	.	.	.	.	.	.
8G	I've	.	.	.	.	.	.
8e	longed	.	.	.	.	.	.
4d	for	.	.	.	.	.	.
16.d	have	.	.	.	.	.	.
16.e	so	.	.	.	.	.	.
=44	=44	=44	=44	=44	=44	=44	=44
16d	of-	1CM	.	voice	.	152.636	C:maj
8.c	-ten	.	.	.	.	.	.
16c	been	.	.	.	.	.	.
16B	de-	.	.	.	.	.	.
[8c	-nied	.	.	.	I	.	.
8c]	_	.	.	.	.	.	.
8r	.	.	.	.	.	.	.
8r	.	.	.	.	.	.	.
16G	still	.	.	.	.	.	.
[16F	I	.	.	.	.	.	.
=45	=45	=45	=45	=45	=45	=45	=45
16F]	_	1CM	newline	voice	.	156.231	C:maj
16r	.	.	.	.	.	.	.
24C	I	.	.	.	.	.	.
24E	would'-	.	.	.	.	.	.
24G	-nt	.	.	.	.	.	.
8c	try	.	.	.	.	.	.
16B	to	.	.	.	.	.	.
8d	change	.	.	.	.	.	.
8.c	you	.	.	.	.	.	.
8.r	.	.	.	.	.	.	.
16E	there's	.	.	.	.	.	.
=46	=46	=46	=46	=46	=46	=46	=46
16G	no	1FM	.	voice	.	159.785	F:maj
8.F	one	.	.	.	.	.	.
8F	that's	.	.	.	.	.	.
16E	to	.	.	.	.	.	.
[16F	blame	.	.	.	J	.	.
4F]	_	.	.	.	.	.	.
8.r	.	.	.	.	.	.	.
16E	it's	.	.	.	.	.	.
=47	=47	=47	=47	=47	=47	=47	=47
16D	just	1GMm	.	voice	.	163.339	G:7
8F	some	.	.	.	.	.	.
8.G	things	.	.	.	.	.	.
16G	that	.	.	.	.	.	.
8e	mean	.	.	.	.	.	.
8d	so	.	.	.	.	.	.
16d	much	.	.	.	.	.	.
8r	.	.	.	.	.	.	.
16d	and	.	.	.	.	.	.
16e	we	.	.	.	.	.	.
=48	=48	=48	=48	=48	=48	=48	=48
16d	just	1CM	.	voice	.	166.892	C:maj
8.c	don't	.	.	.	.	.	.
8c	feel	.	.	.	.	.	.
16B	the	.	.	.	.	.	.
32c	same	.	.	.	J	.	.
32d	_	.	.	.	.	.	.
[2c	_	.	.	.	.	.	.
=49	=49	=49	=49	=49	=49	=49	=49
*M2/4	*	*M2/4	*M2/4	*M2/4	*	*M2/4	*M2/4
4.c]	_	2CMm	.	voice	.	170.446	C:7
8r	.	.	.	.	.	.	.
=50	=50	=50	=50	=50	=50	=50	=50
*>Letter>C2	*>Letter>C2	*>Letter>C2	*>Letter>C2	*>Letter>C2	*>Letter>C2	*>Letter>C2	*>Letter>C2
*>Label>Chorus	*>Label>Chorus	*>Label>Chorus	*>Label>Chorus	*>Label>Chorus	*>Label>Chorus	*>Label>Chorus	*>Label>Chorus
*	*	*M4/4	*M4/4	*M4/4	*	*M4/4	*M4/4
16A	love	2FM	newline	voice	.	172.222	F:maj
16B	is	.	.	.	.	.	.
4c	why	.	.	.	.	.	.
8c	I	.	.	.	.	.	.
8B	came	2GMm	.	voice	.	173.977	G:7
4B	here	.	.	.	.	.	.
16B	in	.	.	.	.	.	.
16A	the	.	.	.	.	.	.
=51	=51	=51	=51	=51	=51	=51	=51
8G	first	1CM	.	voice	.	175.732	C:maj
8D	place	.	.	.	.	.	.
4r	.	.	.	.	.	.	.
2r	.	.	.	.	.	.	.
=52	=52	=52	=52	=52	=52	=52	=52
16A	Love	2FM	.	voice	.	179.242	F:maj
16B	is	.	.	.	.	.	.
[8c	now	.	.	.	.	.	.
8.c]	_	.	.	.	.	.	.
16c	the	.	.	.	.	.	.
8B	rea-	2GMm	.	voice	.	180.998	G:7
16B	-son	.	.	.	.	.	.
8.B	I	.	.	.	.	.	.
16A	must	.	.	.	.	.	.
16G	_	.	.	.	.	.	.
=53	=53	=53	=53	=53	=53	=53	=53
2.G	go	1CM	.	voice	F	182.753	C:maj
4r	.	.	.	.	.	.	.
=54	=54	=54	=54	=54	=54	=54	=54
16A	Love	2FM	newline	voice	.	186.263	F:maj
16B	is	.	.	.	.	.	.
4c	all	.	.	.	.	.	.
8c	I	.	.	.	.	.	.
16B	ev-	2GMm	.	voice	.	187.989	G:7
16c	-er	.	.	.	.	.	.
4d	hoped	.	.	.	.	.	.
16c	to	.	.	.	.	.	.
[16c	find	.	.	.	.	.	.
=55	=55	=55	=55	=55	=55	=55	=55
16c]	_	1CM	.	voice	.	189.716	C:maj
[4..e	here	.	.	.	.	.	.
4.e]	_	.	.	.	.	.	.
8r	.	.	.	.	.	.	.
=56	=56	=56	=56	=56	=56	=56	=56
8f	Love	2FM	.	voice	.	193.169	F:maj
16e	is	.	.	.	.	.	.
8c	still	.	.	.	.	.	.
8r	.	.	.	.	.	.	.
16A	the	.	.	.	.	.	.
8G	on-	2GMm	.	voice	.	194.895	G:7
16G	-ly	.	.	.	.	.	.
8c	dream	.	.	.	.	.	.
8.B	I	.	.	.	.	.	.
=57	=57	=57	=57	=57	=57	=57	=57
[2c	know	1CM	.	voice	F	196.622	C:maj
8c]	_	.	.	.	.	.	.
8r	.	.	.	.	.	.	.
16d	True	.	.	.	.	.	.
8.e	_	.	.	.	.	.	.
=58	=58	=58	=58	=58	=58	=58	=58
4.f	love	1FM	newline	voice	.	200.075	F:maj
8e	is	.	.	.	.	.	.
8c	still	.	.	.	.	.	.
4r	.	.	.	.	.	.	.
8G	the	.	.	.	.	.	.
=59	=59	=59	=59	=59	=59	=59	=59
8G	on-	1GMm	.	voice	.	203.839	G:7
4G	-ly	.	.	.	.	.	.
4c	dream	.	.	.	.	.	.
4d	I	.	.	.	.	.	.
8c	_	.	.	.	.	.	.
=60	=60	=60	=60	=60	=60	=60	=60
*>Letter>A	*>Letter>A	*>Letter>A	*>Letter>A	*>Letter>A	*>Letter>A	*>Letter>A	*>Letter>A
*>Label>Coda	*>Label>Coda	*>Label>Coda	*>Label>Coda	*>Label>Coda	*>Label>Coda	*>Label>Coda	*>Label>Coda
[1c	know	1CM	newline	saxophone	F	207.604	C:maj
=61	=61	=61	=61	=61	=61	=61	=61
1c_	_	1FM	.	saxophone	.	211.401	F:maj
=62	=62	=62	=62	=62	=62	=62	=62
2.c]	_	1CM	.	saxophone	.	215.197	C:maj
4r	.	.	.	.	.	.	.
=63	=63	=63	=63	=63	=63	=63	=63
1r	.	1CM	.	saxophone	.	218.994	C:maj
r;	.	1r;	.	r	.	225.164	N.C.
r;	.	1r;	.	r	.	231.21	N.C.
*-	*-	*-	*-	*-	*-	*-	*-
!!!BillboardChartDate: 1982/08/21
!!!BillboardPeak: 78
!!!BillboardWeeksOnChart: 5
!!!COC: John Denver
!!!ENC: Nathaniel Condit-Schultz
!!!EST: Awating manual error checking and editing.
!!!OTL: Seasons Of The Heart
!!!RDF**chordsym: original McGill chord annotation + (implied pitch class set, with bass pitch in first position)
!!!RDF**harmony: **recip + pitch class of root + harmonic quality
!!!RDF**leadinstrument: original McGill primary instrumentation annotation
!!!RDF**phrase: newline = linebreak in original McGill transcription
!!!RDF**timestamp: McGill audio timestamp in seconds
!!!RDT: 2017/01/12/
!!!SampleActualRank: 78
!!!SampleID#: 0463
!!!SampleTargetRank: 78
